src/resources/theme/colored/ui-light-plain-color-state-warning.svg

<?xml version="1.0" encoding="UTF-8" standalone="no"?>
<svg
   width="512"
   height="512"
   viewBox="0 0 32 32"
   fill="none"
   version="1.1"
   id="svg15"
   sodipodi:docname="ui-light-plain-color-state-warning.svg"
   inkscape:version="1.1.2 (0a00cf5339, 2022-02-04)"
   xmlns:inkscape="http://www.inkscape.org/namespaces/inkscape"
   xmlns:sodipodi="http://sodipodi.sourceforge.net/DTD/sodipodi-0.dtd"
   xmlns="http://www.w3.org/2000/svg"
   xmlns:svg="http://www.w3.org/2000/svg">
  <sodipodi:namedview
     id="namedview17"
     pagecolor="#ffffff"
     bordercolor="#666666"
     borderopacity="1.0"
     inkscape:pageshadow="2"
     inkscape:pageopacity="0.0"
     inkscape:pagecheckerboard="true"
     showgrid="false"
     inkscape:zoom="1.6425781"
     inkscape:cx="244.43282"
     inkscape:cy="256"
     inkscape:window-width="1920"
     inkscape:window-height="1029"
     inkscape:window-x="1920"
     inkscape:window-y="25"
     inkscape:window-maximized="1"
     inkscape:current-layer="svg15" />
  <path
     fill-rule="evenodd"
     clip-rule="evenodd"
     d="m 26.5,23.4995 c 0,4.6939 -3.8061,8.499 -8.5,8.499 -4.6939,0 -8.5,-3.8051 -8.5,-8.499 C 9.5,18.8051 13.3061,15 18,15 c 4.6939,0 8.5,3.8051 8.5,8.4995 z"
     fill="#ffae00"
     id="path4"
     style="paint-order:stroke fill markers;stroke:none;stroke-opacity:0.98695129;stroke-width:3.125;stroke-miterlimit:4;stroke-dasharray:none;stroke-linejoin:miter" />
  <path
     fill-rule="evenodd"
     clip-rule="evenodd"
     d="m 18,26.4624 c -0.3778,0 -0.6988,0.1395 -0.9259,0.3757 -0.2247,0.2337 -0.3588,0.5641 -0.3588,0.9555 -0.0084,0.3836 0.1228,0.7169 0.3505,0.9537 0.2265,0.2357 0.5498,0.3777 0.9342,0.3777 0.3894,0 0.7107,-0.1401 0.937,-0.3723 0.2306,-0.2365 0.364,-0.5708 0.364,-0.9591 C 19.2919,27.395 19.1583,27.0622 18.9307,26.8287 18.7065,26.5987 18.3896,26.4624 18,26.4624 Z m 1.1271,-8.6107 -2.6737,0.4682 0.7082,7.8523 2.0988,-0.4419 z"
     fill="#ffffff"
     stroke="#eb7a04"
     stroke-width="0.25"
     id="path6" />
  <defs
     id="defs13">
    <clipPath
       id="clip0">
      <rect
         width="32"
         height="32"
         fill="white"
         id="rect10" />
    </clipPath>
  </defs>
</svg>

<svg width="512" height="512" viewBox="0 0 32 32" fill="none" xmlns="http://www.w3.org/2000/svg">
<g clip-path="url(#clip0)">
<path fill-rule="evenodd" clip-rule="evenodd" d="M28.8055 12.498C28.5515 9.994 26.4905 8.042 23.9855 8.042C23.9595 8.042 23.9355 8.044 23.9115 8.044C23.8365 5.567 21.8605 3.582 19.4295 3.582C19.2475 3.582 19.0685 3.595 18.8915 3.616C18.4515 1.548 16.6585 0 14.5125 0C12.7495 0 11.2265 1.044 10.4935 2.563C10.0755 2.222 9.5485 2.018 8.9735 2.018C7.6215 2.018 6.5255 3.144 6.5255 4.532C6.5255 5.073 6.6935 5.573 6.9765 5.983C6.0145 6.601 5.2785 7.556 4.9255 8.687C4.7805 8.673 4.6335 8.665 4.4845 8.665C2.0075 8.665 -0.000499725 10.727 -0.000499725 13.27C-0.000499725 15.814 2.0075 18 4.4845 18H9.0725C10.9245 15.006 14.2275 13 17.9995 13C21.7715 13 25.0755 15.006 26.9275 18H29.4355C30.8515 18 31.9995 16.503 31.9995 15.049C31.9995 13.594 30.8515 12.415 29.4355 12.415C29.2175 12.415 29.0075 12.446 28.8055 12.498Z" fill="#041E42"/>
<path fill-rule="evenodd" clip-rule="evenodd" d="M26.5 23.4995C26.5 28.1934 22.6939 31.9985 18 31.9985C13.3061 31.9985 9.5 28.1934 9.5 23.4995C9.5 18.8051 13.3061 15 18 15C22.6939 15 26.5 18.8051 26.5 23.4995Z" fill="#FFAE00"/>
<path fill-rule="evenodd" clip-rule="evenodd" d="M18 26.4624C17.6222 26.4624 17.3012 26.6019 17.0741 26.8381C16.8494 27.0718 16.7153 27.4022 16.7153 27.7936C16.7069 28.1772 16.8381 28.5105 17.0658 28.7473C17.2923 28.983 17.6156 29.125 18 29.125C18.3894 29.125 18.7107 28.9849 18.937 28.7527C19.1676 28.5162 19.301 28.1819 19.301 27.7936C19.2919 27.395 19.1583 27.0622 18.9307 26.8287C18.7065 26.5987 18.3896 26.4624 18 26.4624ZM19.1271 17.8517L16.4534 18.3199L17.1616 26.1722L19.2604 25.7303L19.1271 17.8517Z" fill="white" stroke="#EB7A04" stroke-width="0.25"/>
</g>
<defs>
<clipPath id="clip0">
<rect width="32" height="32" fill="white"/>
</clipPath>
</defs>
</svg>
